src/assets/image/language-solid.svg

<svg aria-hidden="true" focusable="false" data-prefix="fas" data-icon="language" class="svg-inline--fa fa-language fa-w-20" role="img" xmlns="http://www.w3.org/2000/svg" viewBox="0 0 640 512"><path fill="currentColor" d="M152.1 236.2c-3.5-12.1-7.8-33.2-7.8-33.2h-.5s-4.3 21.1-7.8 33.2l-11.1 37.5H163zM616 96H336v320h280c13.3 0 24-10.7 24-24V120c0-13.3-10.7-24-24-24zm-24 120c0 6.6-5.4 12-12 12h-11.4c-6.9 23.6-21.7 47.4-42.7 69.9 8.4 6.4 17.1 12.5 26.1 18 5.5 3.4 7.3 10.5 4.1 16.2l-7.9 13.9c-3.4 5.9-10.9 7.8-16.7 4.3-12.6-7.8-24.5-16.1-35.4-24.9-10.9 8.7-22.7 17.1-35.4 24.9-5.8 3.5-13.3 1.6-16.7-4.3l-7.9-13.9c-3.2-5.6-1.4-12.8 4.2-16.2 9.3-5.7 18-11.7 26.1-18-7.9-8.4-14.9-17-21-25.7-4-5.7-2.2-13.6 3.7-17.1l6.5-3.9 7.3-4.3c5.4-3.2 12.4-1.7 16 3.4 5 7 10.8 14 17.4 20.9 13.5-14.2 23.8-28.9 30-43.2H412c-6.6 0-12-5.4-12-12v-16c0-6.6 5.4-12 12-12h64v-16c0-6.6 5.4-12 12-12h16c6.6 0 12 5.4 12 12v16h64c6.6 0 12 5.4 12 12zM0 120v272c0 13.3 10.7 24 24 24h280V96H24c-13.3 0-24 10.7-24 24zm58.9 216.1L116.4 167c1.7-4.9 6.2-8.1 11.4-8.1h32.5c5.1 0 9.7 3.3 11.4 8.1l57.5 169.1c2.6 7.8-3.1 15.9-11.4 15.9h-22.9a12 12 0 0 1-11.5-8.6l-9.4-31.9h-60.2l-9.1 31.8c-1.5 5.1-6.2 8.7-11.5 8.7H70.3c-8.2 0-14-8.1-11.4-15.9z"></path></svg>

<svg id="Calque_1" data-name="Calque 1" xmlns="http://www.w3.org/2000/svg" viewBox="0 0 640 320"><defs><style>.cls-1{fill:#ff6a14;}</style></defs><path class="cls-1" d="M152.1,236.2c-3.5-12.1-7.8-33.2-7.8-33.2h-.5s-4.3,21.1-7.8,33.2l-11.1,37.5H163ZM616,96H336V416H616a23.94,23.94,0,0,0,24-24V120A23.94,23.94,0,0,0,616,96ZM592,216a12,12,0,0,1-12,12H568.6c-6.9,23.6-21.7,47.4-42.7,69.9a310,310,0,0,0,26.1,18,12,12,0,0,1,4.1,16.2L548.2,346a12,12,0,0,1-16.7,4.3,347.93,347.93,0,0,1-35.4-24.9,352.66,352.66,0,0,1-35.4,24.9A12,12,0,0,1,444,346l-7.9-13.9a12,12,0,0,1,4.2-16.2,285.27,285.27,0,0,0,26.1-18,232,232,0,0,1-21-25.7,12,12,0,0,1,3.7-17.1l6.5-3.9,7.3-4.3a12.09,12.09,0,0,1,16,3.4,190.68,190.68,0,0,0,17.4,20.9c13.5-14.2,23.8-28.9,30-43.2H412a12,12,0,0,1-12-12V200a12,12,0,0,1,12-12h64V172a12,12,0,0,1,12-12h16a12,12,0,0,1,12,12v16h64a12,12,0,0,1,12,12ZM0,120V392a23.94,23.94,0,0,0,24,24H304V96H24A23.94,23.94,0,0,0,0,120ZM58.9,336.1,116.4,167a12,12,0,0,1,11.4-8.1h32.5a12.19,12.19,0,0,1,11.4,8.1l57.5,169.1A12,12,0,0,1,217.8,352H194.9a12,12,0,0,1-11.5-8.6L174,311.5H113.8l-9.1,31.8A12.09,12.09,0,0,1,93.2,352H70.3A12.08,12.08,0,0,1,58.9,336.1Z" transform="translate(0 -96)"/></svg>
